!!!COM: Corelli, Arcangelo
!!!OTL: 
!!!ONM: Opus 6, No. 4
!!!OMV: 5
!!!CDT: 1653/2/17/-1713/1/8/
!!!OCY: Italia
**kern	**kern	**kern	**kern	**kern	**kern	**kern
*clefC	*clefG	*clefG	*clefG	*clefC	*clefG	*clefG
*k[f#c#]	*k[f#c#]	*k[f#c#]	*k[f#c#]	*k[f#c#]	*k[f#c#]	*k[f#c#]
*D:	*D:	*D:	*D:	*D:	*D:	*D:
*M4/4	*M4/4	*M4/4	*M4/4	*M4/4	*M4/4	*M4/4
=1	=1	=1	=1	=1	=1	=1
4D	4f#	4dd	4dd	4D	4dd	16d
.	.	.	.	.	.	16f#
.	.	.	.	.	.	16a
.	.	.	.	.	.	16f#
2.r	2.r	2.r	2.r	2.r	4r	16d
.	.	.	.	.	.	16f#
.	.	.	.	.	.	16a
.	.	.	.	.	.	16f#
.	.	.	.	.	16d	4d
.	.	.	.	.	16f#	.
.	.	.	.	.	16a	.
.	.	.	.	.	16f#	.
.	.	.	.	.	16d	4r
.	.	.	.	.	16f#	.
.	.	.	.	.	16a	.
.	.	.	.	.	16f#	.
=2	=2	=2	=2	=2	=2	=2
1r	1r	1r	1r	1r	4d	16f#
.	.	.	.	.	.	16a
.	.	.	.	.	.	16dd
.	.	.	.	.	.	16a
.	.	.	.	.	4r	16f#
.	.	.	.	.	.	16a
.	.	.	.	.	.	16dd
.	.	.	.	.	.	16a
.	.	.	.	.	16f#	4f#
.	.	.	.	.	16a	.
.	.	.	.	.	16dd	.
.	.	.	.	.	16a	.
.	.	.	.	.	16f#	4r
.	.	.	.	.	16a	.
.	.	.	.	.	16dd	.
.	.	.	.	.	16a	.
=3	=3	=3	=3	=3	=3	=3
1r	1r	1r	8dd	1r	4f#	16a
.	.	.	.	.	.	16dd
.	.	.	8d	.	.	16ff#
.	.	.	.	.	.	16dd
.	.	.	8d	.	4r	16a
.	.	.	.	.	.	16dd
.	.	.	8d	.	.	16ff#
.	.	.	.	.	.	16dd
.	.	.	8dd	.	16a	4a
.	.	.	.	.	16dd	.
.	.	.	8d	.	16ff#	.
.	.	.	.	.	16dd	.
.	.	.	8d	.	16a	4r
.	.	.	.	.	16dd	.
.	.	.	8d	.	16ff#	.
.	.	.	.	.	16dd	.
=4	=4	=4	=4	=4	=4	=4
1r	1r	8dd	8ff#	1r	4a	16dd
.	.	.	.	.	.	16ff#
.	.	8d	8f#	.	.	16aa
.	.	.	.	.	.	16ff#
.	.	8d	8f#	.	4r	16dd
.	.	.	.	.	.	16ff#
.	.	8d	8f#	.	.	16aa
.	.	.	.	.	.	16ff#
.	.	8dd	8ff#	.	16dd	4dd
.	.	.	.	.	16ff#	.
.	.	8d	8f#	.	16aa	.
.	.	.	.	.	16ff#	.
.	.	8d	8f#	.	16dd	4r
.	.	.	.	.	16ff#	.
.	.	8d	8f#	.	16aa	.
.	.	.	.	.	16ff#	.
=5	=5	=5	=5	=5	=5	=5
8d	8d	8ff#	8aa	8d	4dd	16ff#
.	.	.	.	.	.	16aa
8D	16d	8f#	8a	8D	.	16ddd
.	16d	.	.	.	.	16aa
8D	8d	8f#	8a	8D	4r	16ff#
.	.	.	.	.	.	16aa
8D	8d	8f#	8a	8D	.	16ddd
.	.	.	.	.	.	16aa
8d	8d	8ff#	8aa	8d	16ff#	4ff#
.	.	.	.	.	16aa	.
8D	8A	8f#	8a	8D	16ddd	.
.	.	.	.	.	16aa	.
8D	4r	8f#	8a	8D	16ff#	4r
.	.	.	.	.	16aa	.
8D	.	8f#	8a	8D	16ddd	.
.	.	.	.	.	16aa	.
=6	=6	=6	=6	=6	=6	=6
8B	8f#	4ff#	16d	8B	4ff#	16d
.	.	.	16d	.	.	16d
8BB	16f#	.	16d	8BB	.	16d
.	16f#	.	16d	.	.	16d
8BB	8f#	4r	16d	8BB	4r	16d
.	.	.	16d	.	.	16d
8BB	8f#	.	16d	8BB	.	16d
.	.	.	16d	.	.	16d
8B	8f#	16d	16d	8B	16d	16d
.	.	16d	16d	.	16d	16d
8BB	8d	16d	16d	8BB	16d	16d
.	.	16d	16d	.	16d	16d
8BB	4r	16d	16d	8BB	16d	16d
.	.	16d	16d	.	16d	16d
8BB	.	16d	16d	8BB	16d	16d
.	.	16d	16d	.	16d	16d
=7	=7	=7	=7	=7	=7	=7
8G	8b	16d	16d	8G	16d	16d
.	.	16d	16d	.	16d	16d
8GG	16b	16d	16d	8GG	16d	16d
.	16b	16d	16d	.	16d	16d
8GG	8b	16d	16d	8GG	16d	16d
.	.	16d	16d	.	16d	16d
8GG	8b	16d	16d	8GG	16d	16d
.	.	16d	16d	.	16d	16d
8G	8b	16d	16d	8G	16d	16d
.	.	16d	16d	.	16d	16d
8GG	8B	16d	16d	8GG	16d	16d
.	.	16d	16d	.	16d	16d
8GG	4r	16d	16d	8GG	16d	16d
.	.	16d	16d	.	16d	16d
8GG	.	16d	16d	8GG	16d	16d
.	.	16d	16d	.	16d	16d
=8	=8	=8	=8	=8	=8	=8
4F#	4dd	16d	16a	4F#	16d	16a
.	.	16f#	16dd	.	16f#	16dd
.	.	16d	16a	.	16d	16a
.	.	16f#	16dd	.	16f#	16dd
8r	4d	16d	16a	8r	16d	16a
.	.	16f#	16dd	.	16f#	16dd
8D	.	16d	16a	8D	16d	16a
.	.	16f#	16dd	.	16f#	16dd
8G	8r	16g	16b	8G	16g	16b
.	.	16b	16dd	.	16b	16dd
8GG	8d	16g	16b	8GG	16g	16b
.	.	16b	16dd	.	16b	16dd
8r	8d	16g	16b	8r	16g	16b
.	.	16b	16dd	.	16b	16dd
8G	8G	16g	16b	8G	16g	16b
.	.	16b	16dd	.	16b	16dd
=9	=9	=9	=9	=9	=9	=9
8F#	8r	16d	16a	8F#	16d	16a
.	.	16f#	16dd	.	16f#	16dd
8FF#	8d	16d	16a	8FF#	16d	16a
.	.	16f#	16dd	.	16f#	16dd
8r	8d	16d	16a	8r	16d	16a
.	.	16f#	16dd	.	16f#	16dd
8D	8D	16d	16a	8D	16d	16a
.	.	16f#	16dd	.	16f#	16dd
8G	8r	16g	16b	8G	16g	16b
.	.	16b	16dd	.	16b	16dd
8GG	8d	16g	16b	8GG	16g	16b
.	.	16b	16dd	.	16b	16dd
4r	8d	16g	16b	4r	16g	16b
.	.	16b	16dd	.	16b	16dd
.	8G	16g	16b	.	16g	16b
.	.	16b	16dd	.	16b	16dd
=10	=10	=10	=10	=10	=10	=10
4G#	4r	16e	16b	4G#	16e	16b
.	.	16g#	16ee	.	16g#	16ee
.	.	16e	16b	.	16e	16b
.	.	16g#	16ee	.	16g#	16ee
8r	4e	16e	16b	8r	16e	16b
.	.	16g#	16ee	.	16g#	16ee
8E	.	16e	16b	8E	16e	16b
.	.	16g#	16ee	.	16g#	16ee
8A	8r	16a	16cc#	8A	16a	16cc#
.	.	16cc#	16ee	.	16cc#	16ee
8AA	8e	16a	16cc#	8AA	16a	16cc#
.	.	16cc#	16ee	.	16cc#	16ee
8r	8e	16a	16cc#	8r	16a	16cc#
.	.	16cc#	16ee	.	16cc#	16ee
8A	8A	16a	16cc#	8A	16a	16cc#
.	.	16cc#	16ee	.	16cc#	16ee
=11	=11	=11	=11	=11	=11	=11
8G#	8r	16e	16b	8G#	16e	16b
.	.	16g#	16ee	.	16g#	16ee
8GG#	8e	16e	16b	8GG#	16e	16b
.	.	16g#	16ee	.	16g#	16ee
8r	8e	16e	16b	8r	16e	16b
.	.	16g#	16ee	.	16g#	16ee
8E	8E	16e	16b	8E	16e	16b
.	.	16g#	16ee	.	16g#	16ee
8A	8r	16a	16cc#	8A	16a	16cc#
.	.	16cc#	16ee	.	16cc#	16ee
8AA	8e	16a	16cc#	8AA	16a	16cc#
.	.	16cc#	16ee	.	16cc#	16ee
4r	8e	16a	16cc#	4r	16a	16cc#
.	.	16cc#	16ee	.	16cc#	16ee
.	8A	16a	16cc#	.	16a	16cc#
.	.	16cc#	16ee	.	16cc#	16ee
=12	=12	=12	=12	=12	=12	=12
4A#	4r	16f#	16cc#	4A#	16f#	16cc#
.	.	16a#	16ff#	.	16a#	16ff#
.	.	16f#	16cc#	.	16f#	16cc#
.	.	16a#	16ff#	.	16a#	16ff#
8r	4f#	16f#	16cc#	8r	16f#	16cc#
.	.	16a#	16ff#	.	16a#	16ff#
8F#	.	16f#	16cc#	8F#	16f#	16cc#
.	.	16a#	16ff#	.	16a#	16ff#
8B	8r	16b	16dd	8B	16b	16dd
.	.	16dd	16ff#	.	16dd	16ff#
8BB	8f#	16b	16dd	8BB	16b	16dd
.	.	16dd	16ff#	.	16dd	16ff#
8r	8f#	16b	16dd	8r	16b	16dd
.	.	16dd	16ff#	.	16dd	16ff#
8B	8B	16b	16dd	8B	16b	16dd
.	.	16dd	16ff#	.	16dd	16ff#
=13	=13	=13	=13	=13	=13	=13
8A#	8r	16f#	16cc#	8A#	16f#	16cc#
.	.	16a#	16ff#	.	16a#	16ff#
8AA#	8f#	16f#	16cc#	8AA#	16f#	16cc#
.	.	16a#	16ff#	.	16a#	16ff#
8r	8f#	16f#	16cc#	8r	16f#	16cc#
.	.	16a#	16ff#	.	16a#	16ff#
8F#	8F#	16f#	16cc#	8F#	16f#	16cc#
.	.	16a#	16ff#	.	16a#	16ff#
8B	8r	16b	16dd	8B	16b	16dd
.	.	16dd	16ff#	.	16dd	16ff#
8BB	8f#	16b	16dd	8BB	16b	16dd
.	.	16dd	16ff#	.	16dd	16ff#
4r	8f#	16b	16dd	4r	16b	16dd
.	.	16dd	16ff#	.	16dd	16ff#
.	8B	16b	16dd	.	16b	16dd
.	.	16dd	16ff#	.	16dd	16ff#
=14	=14	=14	=14	=14	=14	=14
4G	8r	16b	16dd	4G	16b	16dd
.	.	16dd	16gg	.	16dd	16gg
.	8b	16b	16dd	.	16b	16dd
.	.	16dd	16gg	.	16dd	16gg
4r	8g	16b	16dd	4r	16b	16dd
.	.	16dd	16gg	.	16dd	16gg
.	8b	16b	16dd	.	16b	16dd
.	.	16dd	16gg	.	16dd	16gg
4A	4a	4cc#	4ee	4A	16cc#	16ee
.	.	.	.	.	16ff#	16aa
.	.	.	.	.	16ee	16gg
.	.	.	.	.	16ff#	16aa
8r	8r	8r	8r	8r	16dd	16ff#
.	.	.	.	.	16ff#	16aa
8D	8a	8dd	8ff#	8D	16ee	16gg
.	.	.	.	.	16dd	16ff#
=15	=15	=15	=15	=15	=15	=15
4A	4a	4cc#	4ee	4A	16cc#	16ee
.	.	.	.	.	16ff#	16aa
.	.	.	.	.	16ee	16gg
.	.	.	.	.	16ff#	16aa
8r	8r	8r	8r	8r	16dd	16ff#
.	.	.	.	.	16ff#	16aa
8D	8A	8dd	8ff#	8D	16ee	16gg
.	.	.	.	.	16dd	16ff#
4A	4A	4cc#	4ee	4A	16cc#	16ee
.	.	.	.	.	16ff#	16aa
.	.	.	.	.	16ee	16gg
.	.	.	.	.	16ff#	16aa
8r	8r	8r	8r	8r	16dd	16ff#
.	.	.	.	.	16ff#	16aa
8D	8a	8dd	8ff#	8D	16ee	16gg
.	.	.	.	.	16dd	16ff#
=16	=16	=16	=16	=16	=16	=16
8A	8a	8cc#	8ee	8A	8cc#	16ee
.	.	.	.	.	.	16aa
8D	16f#	8dd	8ff#	8D	8dd	16gg
.	16g	.	.	.	.	16ff#
8A	8.a	8.dd	8.ee	8A	8.dd	4ee
8AA	.	.	.	8AA	.	.
.	16a	16cc#	16ee	.	16cc#	.
4D	4a	4dd	4ff#	4D	16dd	16dd
.	.	.	.	.	16ff#	16aa
.	.	.	.	.	16ee	16gg
.	.	.	.	.	16ff#	16aa
8r	8r	8r	8r	8r	16dd	16ff#
.	.	.	.	.	16ff#	16aa
8D	8a	8dd	8ff#	8D	16ee	16gg
.	.	.	.	.	16dd	16ff#
=17	=17	=17	=17	=17	=17	=17
4A	4a	4cc#	4ee	4A	16cc#	16ee
.	.	.	.	.	16ff#	16aa
.	.	.	.	.	16ee	16gg
.	.	.	.	.	16ff#	16aa
8r	8r	8r	8r	8r	16dd	16ff#
.	.	.	.	.	16ff#	16aa
8D	8A	8dd	8ff#	8D	16ee	16gg
.	.	.	.	.	16dd	16ff#
4A	4A	4cc#	4ee	4A	16cc#	16ee
.	.	.	.	.	16ff#	16aa
.	.	.	.	.	16ee	16gg
.	.	.	.	.	16ff#	16aa
8r	8r	8r	8r	8r	16dd	16ff#
.	.	.	.	.	16ff#	16aa
8D	8a	8dd	8ff#	8D	16ee	16gg
.	.	.	.	.	16dd	16ff#
=18	=18	=18	=18	=18	=18	=18
8A	8a	8cc#	8ee	8A	8cc#	16ee
.	.	.	.	.	.	16aa
8D	16f#	8dd	8ff#	8D	8dd	16gg
.	16g	.	.	.	.	16ff#
8A	8.a	8.dd	8.ee	8A	8.dd	4ee
8AA	.	.	.	8AA	.	.
.	16a	16cc#	16ee	.	16cc#	.
4D	4a	4dd	4ff#	4D	4dd	4dd
4r	4r	4r	4r	4r	4r	4r
=19	=19	=19	=19	=19	=19	=19
4AA	4A	4c#	4e	4AA	4c#	4e
4r	4r	4r	4r	4r	4r	4r
4DD	4A	4d	4f#	4DD	4d	4f#
4r	4r	4r	4r	4r	4r	4r
==	==	==	==	==	==	==
*-	*-	*-	*-	*-	*-	*-
!!!RWG: This file only contains pitch and duration data.
!!!RWG: Transposing instruments are not transposed.
!!!RWG: Durations of rests and tied notes may be interpreted.
!!!RWG: Key is interpreted using the Humdrum key tool.
!!!SCA: 
!!!YOR: Chrysander Edition
!!!AGN: concerto grosso
!!!AFT: stage1
!!!ENC: F. Bennion
!!!END: 1997/04/15
!!!AST: baroque
!!!YEC: Copyright 1994, Center for Computer Assisted Research in the Humanities
!!!YEM: Rights to all derivative electronic formats reserved.
!!!YEM: Refer to licensing agreement for further details.
!!!YEN: United States of America
!!!EED: W.B. Hewlett
!!!KEY: 998816601
!!!EMD: Converted from MuseData to Humdrum Aug 9, 1999, by Bret Aarden using muse2kern.
!!!VTS: 1902035272
